svgs/sharp-solid/trowel-bricks.svg

<svg xmlns="http://www.w3.org/2000/svg" viewBox="0 0 512 512"><!--! Font Awesome Pro 6.6.0 by @fontawesome - https://fontawesome.com License - https://fontawesome.com/license (Commercial License) Copyright 2024 Fonticons, Inc. --><path d="M256 152l0 104-48 0L0 128 208 0l48 0 0 104 88 0 0-24 168 0 0 96-168 0 0-24-88 0zm32 72l224 0 0 128-224 0 0-128zM160 384l0 128L0 512 0 384l160 0zm352 0l0 128-320 0 0-128 320 0z"/></svg>

<svg xmlns="http://www.w3.org/2000/svg" viewBox="0 0 512 512"><!--! Font Awesome Pro 6.5.2 by @fontawesome - https://fontawesome.com License - https://fontawesome.com/license (Commercial License) Copyright 2024 Fonticons, Inc. --><path d="M256 152V256H208L0 128 208 0h48V104h88V80H512v96H344V152H256zm32 72H512V352H288V224zM160 384V512H0V384H160zm352 0V512H192V384H512z"/></svg>
